X:01
T:Wags of Windsor. Pn1801.01, The
M:2/4
L:1/8
Q:1/4=100
C:"401""1801"
W:1st & 2nd Cu:change side and set,back again and set, lead down 1sr Cu: and set,1st & 2nd Cu: la Pousette.
B:Preston 24 for 1801
Z:Village Music Project, John Adams, 2017
K:F
(c>A) .F.F|(c>A) .F.F|(de) (fd)|c2A2|(c>A) .F.F|(c>A) .F.F|(defg)(a2f)z:|
|:(fe) (fd)|(cA).F.F|(fe) (fd)|c2A2|(fe) (fd)|(cA) .F.F|(defg)|(a2f)z:|
